X:1
T:The Light of the World Is Jesus
T:The Light of the World Is Jesus
T:Anthony Johnson Showalter
T:Anthony Johnson Showalter, 1903
T:Public Domain Courtesy of the Cyber Hymnal™
T:Public Domain Courtesy of the Cyber Hymnal™
C:Anthony Johnson Showalter
Z:Public Domain
Z:Courtesy of the Cyber Hymnal™
%%score ( 1 2 ) ( 3 4 )
L:1/8
Q:1/4=100
M:4/4
K:A
V:1 treble 
V:2 treble 
V:3 bass 
V:4 bass 
V:1
 [CE]2 | [CE]2 [CF]>[CG] [CA]2 [CB]2 | [DA]4 [DG]2 [DE]2 | [DE]2 [DF]>[DG] [Ec]2 [EB]2 | %4
w: 1.~The|light of the world is|Je- sus! It|shines with a ra- diance|
w: 2.~The|light of the world is|Je- sus! Ef-|ful- gent its rays and|
w: 3.~The|light of the world is|Je- sus! Tho’|rough be my path and|
 [^DB]2 [DA]>[DF] E2 [=DE]2 | [CE]2 [CF]>[CG] [CA]2 [Ec]2 | [Fc]2 [FB]>[FB] !fermata![Fd]2 [EB]2 | %7
w: beam- ing so bright, Dis-|pell- ing the gloom and|dark- ness of night, The|
w: lus- trous its shine, No|clouds can ob- scure its|beams so di- vine, The|
w: long be the way, It|leads to those man- sions|“fai- rer than day,” The|
 [Ec]2 [Ee]>[Ee] [Ee]2 [Ac]2 | B4 [EA]2 ||"^Refrain" E2 | c6 (A>B) | c6 [CE]2 | %12
w: light of the world is|Je- sus!||||
w: light of the world is|Je- sus!|The|light of *|* the|
w: light of the world is|Je- sus!||||
 [DF]2 [DF]>[DF] [^DB]2 [DA]2 | [^DA]4 [EG]2 E2 | e6 (e>d) | c6 [Ec]2 | c6 c>B | A6 [=GA]2 | %18
w: ||||||
w: world, light of the world|The light of|the world *|* is|Je- sus! It|shines on|
w: ||||||
 BA [EG]>[DF] ([CE][Ee]) [Ac]2 | B4 !fermata![EA]2 |] %20
w: ||
w: * * the way, shines * on|the way,|
w: ||
V:2
 x2 | x8 | x8 | x8 | x4 E2 x2 | x8 | x8 | x8 | (G2 E2) x2 || E2 | E2 E>E E2 x2 | E2 E>E E2 x2 | %12
 x8 | x6 E2 | E2 E>E E2 x2 | E2 E>E E2 x2 | ^E2 E>E E2 x2 | F2 F>F F2 x2 | F2 x6 | (G2 E2) x2 |] %20
V:3
 [A,,A,]2 | [A,,A,]2 [A,,A,]>[A,,A,] [A,,A,]2 [A,,E,]2 | [B,,E,]4 [B,,E,]2 [E,G,]2 | %3
 [E,G,]2 [E,A,]>[E,B,] [E,A,]2 [E,G,]2 | [B,,F,]2 [B,,B,]>[B,,A,] [E,G,]2 [E,G,]2 | %5
 [A,,A,]2 [A,,A,]>[A,,A,] [A,,A,]2 [A,,A,]2 | [D,^A,]2 [D,B,]>[D,B,] !fermata![B,,B,]2 [E,G,]2 | %7
 A,2 [G,B,]>[G,B,] [A,C]2 [A,E]2 | [E,D]4 [A,,C]2 || E,2 | [A,,A,]2 [A,,A,]>[A,,A,] [A,,A,]2 z2 | %11
 [A,,A,]2 [A,,A,]>[A,,A,] [A,,A,]2 [A,,A,]2 | [D,A,]2 [D,A,]>[D,A,] [B,,B,]2 [B,,B,]2 | %13
 [B,,B,]4 [E,B,]2 E,2 | [E,G,]2 [E,G,]>[F,A,] [F,A,]2 z2 | A,2 [E,A,]>[C,A,] [A,,A,]2 [A,,A,]2 | %16
 [C,G,]2 [C,C]>[C,C] [C,C]2 z2 | [F,C]2 [F,C]>[F,C] [F,C]2 [C,E]2 | %18
 [D,D]2 [D,A,]>[D,A,] (A,C) [E,E]2 | [E,D]4 !fermata![A,,C]2 |] %20
V:4
 x2 | x8 | x8 | x8 | x8 | x8 | x8 | A,2 x6 | x6 || E,2 | x8 | x8 | x8 | x6 E,2 | x8 | A,2 x6 | x8 | %17
 x8 | x4 E,2 x2 | x6 |] %20

